X: 9
T: Green Groves Of Erin, The
Z: UPipes & harp
S: https://thesession.org/tunes/41#setting52475
R: reel
M: 4/4
L: 1/8
K: Amix
|:A2cA eAcA|G2Bd gdBG|A2cA eAcA|BGED GABG|
A2cA eAcA|G2Bd gdBG|A2cA eAcA|1 BGED GABG:|2 BGED EGBd||
eaag eaag|eggf eggf|eaag eaag|edef gedg|
ea~a2 bgag|edef g3e|dega bgag|egfa gedg|
ea~a2 ea~a2|eg~g2 eg ~g2|ea~a2 ea~a2|edef gedg|
ea~a2 bgag|edef g3e|dega bgag|egfa gedB||

%-------------------- TUNE SEPARATOR --------------------%

